;FLAVOR:Marlin
;TIME:2463
;Filament used: 3.25515m
;Layer height: 0.28
;MINX:55.128
;MINY:40.325
;MINZ:0.28
;MAXX:164.882
;MAXY:179.666
;MAXZ:3.08
;Generated with Cura_SteamEngine 5.2.1
M82 ;absolute extrusion mode
; Ender 3 Custom Start G-code
G92 E0 ; Reset Extruder
G28 ; Home all axes
M104 S175 ; Start heating up the nozzle most of the way
M190 S60 ; Start heating the bed, wait until target temperature reached
M109 S190.0 ; Finish heating the nozzle
G1 Z2.0 F3000 ; Move Z Axis up little to prevent scratching of Heat Bed
G1 X0.1 Y20 Z0.3 F5000.0 ; Move to start position
G1 X0.1 Y200.0 Z0.3 F1500.0 E15 ; Draw the first line
G1 X0.4 Y200.0 Z0.3 F5000.0 ; Move to side a little
G1 X0.4 Y20 Z0.3 F1500.0 E30 ; Draw the second line
G92 E0 ; Reset Extruder
G1 Z2.0 F3000 ; Move Z Axis up little to prevent scratching of Heat Bed
G1 X5 Y20 Z0.3 F5000.0 ; Move over to prevent blob squish
G92 E0
G92 E0
G1 F1800 E-6.5
;LAYER_COUNT:11
;LAYER:0
M107
G0 F7200 X69.291 Y59.049 Z0.28
;TYPE:SKIRT
G1 F1800 E0
G1 F1200 X69.87 Y58.366 E0.0469
G1 X70.758 Y57.376 E0.11657
G1 X71.852 Y56.205 E0.20052
G1 X72.176 Y55.872 E0.22486
G1 X73.14 Y54.927 E0.29557
G1 X74.282 Y53.854 E0.37766
G1 X74.642 Y53.531 E0.403
G1 X75.526 Y52.77 E0.4641
G1 X76.845 Y51.681 E0.5537
G1 X77.23 Y51.377 E0.5794
G1 X78.237 Y50.62 E0.64539
G1 X79.202 Y49.92 E0.70784
G1 X80.005 Y49.363 E0.75904
G1 X81.028 Y48.694 E0.82307
G1 X82.19 Y47.966 E0.8949
G1 X82.915 Y47.534 E0.93911
G1 X84.178 Y46.827 E1.01493
G1 X85.495 Y46.127 E1.09306
G1 X85.93 Y45.908 E1.11858
G1 X87.193 Y45.308 E1.19182
G1 X88.151 Y44.872 E1.24696
G1 X89.076 Y44.474 E1.29971
G1 X90.4 Y43.949 E1.37432
G1 X91.881 Y43.399 E1.45708
G1 X92.32 Y43.246 E1.48144
G1 X93.42 Y42.889 E1.54202
G1 X95.194 Y42.354 E1.63908
G1 X95.653 Y42.227 E1.66403
G1 X96.93 Y41.904 E1.73303
G1 X98.269 Y41.589 E1.80509
G1 X98.874 Y41.456 E1.83754
G1 X100.137 Y41.213 E1.90492
G1 X101.179 Y41.032 E1.96032
G1 X102.285 Y40.862 E2.01894
G1 X103.986 Y40.652 E2.10872
G1 X104.81 Y40.565 E2.15212
G1 X105.194 Y40.532 E2.17231
G1 X106.882 Y40.414 E2.26095
G1 X108.131 Y40.355 E2.32646
G1 X109.822 Y40.325 E2.41505
G1 X111.009 Y40.331 E2.47723
G1 X112.697 Y40.387 E2.56571
G1 X113.905 Y40.454 E2.62909
G1 X115.401 Y40.58 E2.70773
G1 X116.807 Y40.728 E2.78179
G1 X118.2 Y40.916 E2.85542
G1 X119.309 Y41.084 E2.91418
G1 X119.686 Y41.148 E2.93421
G1 X121.338 Y41.461 E3.02229
G1 X122.5 Y41.705 E3.08449
G1 X123.026 Y41.829 E3.1128
G1 X124.913 Y42.322 E3.21497
G1 X125.331 Y42.44 E3.23772
G1 X126.781 Y42.88 E3.3171
G1 X127.194 Y43.014 E3.33984
G1 X128.761 Y43.557 E3.42672
G1 X129.167 Y43.707 E3.44939
G1 X130.572 Y44.256 E3.52841
G1 X130.969 Y44.42 E3.55091
G1 X132.391 Y45.04 E3.63218
G1 X132.781 Y45.219 E3.65466
G1 X134.192 Y45.9 E3.73673
G1 X134.574 Y46.094 E3.75917
G1 X135.926 Y46.812 E3.83937
G1 X136.307 Y47.024 E3.86221
G1 X137.684 Y47.826 E3.94568
G1 X138.044 Y48.044 E3.96773
G1 X139.299 Y48.84 E4.04558
G1 X139.656 Y49.077 E4.06803
G1 X140.964 Y49.979 E4.15126
G1 X141.305 Y50.224 E4.17326
G1 X142.518 Y51.13 E4.25257
G1 X142.841 Y51.38 E4.27396
G1 X144.066 Y52.367 E4.35637
G1 X144.404 Y52.651 E4.3795
G1 X145.589 Y53.686 E4.46192
G1 X145.882 Y53.951 E4.48261
G1 X146.995 Y54.995 E4.56255
G1 X147.297 Y55.29 E4.58467
G1 X148.658 Y56.676 E4.68643
G1 X149.75 Y57.864 E4.77096
G1 X150.024 Y58.175 E4.79267
G1 X151.031 Y59.356 E4.87397
G1 X151.289 Y59.669 E4.89522
G1 X152.265 Y60.902 E4.9776
G1 X152.501 Y61.211 E4.99796
G1 X153.456 Y62.508 E5.08234
G1 X153.685 Y62.832 E5.10312
G1 X154.567 Y64.124 E5.18507
G1 X154.784 Y64.454 E5.20576
G1 X155.659 Y65.839 E5.29158
G1 X155.858 Y66.166 E5.31163
G1 X156.677 Y67.567 E5.39664
G1 X156.865 Y67.901 E5.41672
G1 X157.619 Y69.299 E5.49993
G1 X157.799 Y69.649 E5.52054
G1 X158.723 Y71.531 E5.63037
G1 X159.383 Y72.988 E5.71416
G1 X159.53 Y73.328 E5.73357
G1 X160.3 Y75.206 E5.83989
G1 X161.021 Y77.142 E5.94812
G1 X161.567 Y78.761 E6.03762
G1 X162.159 Y80.703 E6.14397
G1 X162.26 Y81.056 E6.16321
G1 X162.81 Y83.142 E6.27622
G1 X163.239 Y85.004 E6.37631
G1 X163.546 Y86.489 E6.45575
G1 X163.691 Y87.248 E6.49623
G1 X164.019 Y89.128 E6.5962
G1 X164.239 Y90.582 E6.67323
G1 X164.474 Y92.489 E6.77388
G1 X164.513 Y92.856 E6.79322
G1 X164.66 Y94.537 E6.88161
G1 X164.763 Y96.214 E6.96963
G1 X164.833 Y98.001 E7.06331
G1 X164.875 Y100.147 E7.17575
G1 X164.882 Y101.459 E7.24448
G1 X164.87 Y103.343 E7.34317
G1 X164.835 Y104.911 E7.42533
G1 X164.805 Y105.758 E7.46973
G1 X164.739 Y107.189 E7.54477
G1 X164.692 Y107.991 E7.58686
G1 X164.592 Y109.409 E7.66132
G1 X164.523 Y110.228 E7.70438
G1 X164.32 Y112.271 E7.81193
G1 X164.154 Y113.647 E7.88453
G1 X164.046 Y114.461 E7.92755
G1 X163.737 Y116.51 E8.0361
G1 X163.423 Y118.315 E8.13207
G1 X163.321 Y118.855 E8.16086
G1 X163.032 Y120.286 E8.23734
G1 X162.495 Y122.668 E8.36525
G1 X161.947 Y124.822 E8.48168
G1 X161.454 Y126.584 E8.57753
G1 X161.131 Y127.672 E8.63698
G1 X160.765 Y128.847 E8.70145
G1 X160.419 Y129.912 E8.76011
G1 X160.069 Y130.945 E8.81724
G1 X159.691 Y132.023 E8.87709
G1 X159.269 Y133.18 E8.9416
G1 X158.88 Y134.213 E8.99942
G1 X158.438 Y135.349 E9.06328
G1 X157.975 Y136.503 E9.12841
G1 X157.38 Y137.939 E9.20984
G1 X156.693 Y139.525 E9.30038
G1 X155.99 Y141.064 E9.38901
G1 X155.408 Y142.267 E9.45902
G1 X154.519 Y143.991 E9.56063
G1 X153.633 Y145.595 E9.65662
G1 X152.69 Y147.21 E9.75459
G1 X151.798 Y148.674 E9.8444
G1 X151.08 Y149.812 E9.91488
G1 X150.36 Y150.919 E9.98406
G1 X149.204 Y152.627 E10.0921
G1 X148.421 Y153.736 E10.16322
G1 X147.633 Y154.808 E10.23291
G1 X146.628 Y156.108 E10.31899
G1 X145.927 Y156.988 E10.37793
G1 X144.759 Y158.377 E10.47299
G1 X143.829 Y159.44 E10.54698
G1 X142.676 Y160.686 E10.63591
G1 X142.052 Y161.341 E10.6833
G1 X140.597 Y162.777 E10.79039
G1 X139.684 Y163.639 E10.85617
G1 X138.567 Y164.634 E10.93453
G1 X137.56 Y165.496 E11.00397
G1 X136.383 Y166.443 E11.0831
G1 X135.626 Y167.031 E11.13332
G1 X135.317 Y167.262 E11.15353
G1 X133.939 Y168.252 E11.24241
G1 X133.332 Y168.671 E11.28105
G1 X132.4 Y169.28 E11.33937
G1 X131.499 Y169.846 E11.39511
G1 X130.741 Y170.301 E11.44142
G1 X129.865 Y170.798 E11.49418
G1 X129.113 Y171.211 E11.53912
G1 X128.319 Y171.627 E11.58608
G1 X125.767 Y172.883 E11.73508
G1 X123.559 Y174.032 E11.86547
G1 X121.35 Y175.262 E11.99792
G1 X119.216 Y176.531 E12.12798
G1 X118.462 Y177.009 E12.17474
G1 X117.499 Y177.604 E12.23404
G1 X116.676 Y178.066 E12.28348
G1 X115.772 Y178.473 E12.33542
G1 X115.258 Y178.678 E12.36441
G1 X114.658 Y178.902 E12.39796
G1 X113.758 Y179.184 E12.44736
G1 X112.536 Y179.438 E12.51274
G1 X112.037 Y179.513 E12.53918
G1 X111.404 Y179.594 E12.57261
G1 X110.464 Y179.666 E12.62199
G1 X109.169 Y179.634 E12.68985
G1 X108.639 Y179.59 E12.71771
G1 X108.034 Y179.526 E12.74958
G1 X107.102 Y179.381 E12.79899
G1 X105.834 Y179.048 E12.86767
G1 X105.053 Y178.789 E12.91077
G1 X104.755 Y178.682 E12.92736
G1 X103.882 Y178.325 E12.97677
G1 X102.743 Y177.721 E13.0443
G1 X101.517 Y176.975 E13.11948
G1 X100.696 Y176.457 E13.17033
G1 X98.564 Y175.194 E13.30014
G1 X96.328 Y173.954 E13.43408
G1 X94.092 Y172.794 E13.56604
G1 X92.306 Y171.924 E13.67011
G1 X91.646 Y171.583 E13.70902
G1 X90.208 Y170.799 E13.79482
G1 X89.563 Y170.428 E13.8338
G1 X88.252 Y169.628 E13.91425
G1 X87.108 Y168.894 E13.98546
G1 X86.726 Y168.638 E14.00954
G1 X85.831 Y168.01 E14.06682
G1 X84.346 Y166.918 E14.16338
G1 X84.008 Y166.659 E14.18569
G1 X83.12 Y165.948 E14.24528
G1 X82.263 Y165.24 E14.30351
G1 X81.646 Y164.717 E14.34588
G1 X80.694 Y163.862 E14.41291
G1 X79.767 Y163.002 E14.47915
G1 X79.114 Y162.379 E14.52643
G1 X78.426 Y161.69 E14.57743
G1 X77.245 Y160.465 E14.66657
G1 X76.434 Y159.591 E14.72903
G1 X74.968 Y157.909 E14.84591
G1 X74.166 Y156.949 E14.91144
G1 X72.789 Y155.196 E15.02821
G1 X71.989 Y154.136 E15.09778
G1 X70.685 Y152.301 E15.21571
G1 X69.977 Y151.264 E15.28148
G1 X68.796 Y149.429 E15.3958
G1 X67.988 Y148.123 E15.47625
G1 X66.924 Y146.293 E15.58714
G1 X66.327 Y145.232 E15.65091
G1 X65.212 Y143.12 E15.77602
G1 X64.301 Y141.314 E15.88198
G1 X64.02 Y140.73 E15.91593
G1 X63.211 Y138.98 E16.01693
G1 X62.417 Y137.137 E16.12205
G1 X61.503 Y134.903 E16.24849
G1 X61.051 Y133.739 E16.3139
G1 X60.013 Y130.825 E16.47595
G1 X59.6 Y129.591 E16.54412
G1 X58.765 Y126.85 E16.69422
G1 X58.36 Y125.43 E16.77157
G1 X57.652 Y122.645 E16.9221
G1 X57.328 Y121.271 E16.99605
G1 X56.759 Y118.507 E17.14388
G1 X56.486 Y117.047 E17.22169
G1 X56.051 Y114.3 E17.36738
G1 X55.848 Y112.851 E17.44403
G1 X55.52 Y109.889 E17.60014
G1 X55.404 Y108.611 E17.66736
G1 X55.23 Y105.854 E17.81207
G1 X55.165 Y104.387 E17.889
G1 X55.128 Y101.678 E18.03092
G1 X55.143 Y99.479 E18.14612
G1 X55.192 Y98.03 E18.22207
G1 X55.238 Y97.098 E18.27095
G1 X55.374 Y95.068 E18.37753
G1 X55.485 Y93.794 E18.44452
G1 X55.707 Y91.767 E18.55134
G1 X55.988 Y89.713 E18.65994
G1 X56.113 Y88.917 E18.70215
G1 X56.459 Y86.944 E18.80708
G1 X56.807 Y85.222 E18.89911
G1 X57.245 Y83.328 E19.00095
G1 X57.778 Y81.297 E19.11094
G1 X58.434 Y79.089 E19.2316
G1 X58.927 Y77.598 E19.31387
G1 X59.432 Y76.193 E19.39208
G1 X60.358 Y73.854 E19.52386
G1 X60.719 Y72.997 E19.57257
G1 X61.036 Y72.294 E19.61297
G1 X61.808 Y70.642 E19.70849
G1 X62.209 Y69.826 E19.75612
G1 X62.595 Y69.086 E19.79984
G1 X63.422 Y67.56 E19.89077
G1 X63.87 Y66.772 E19.93825
G1 X64.467 Y65.781 E19.99886
G1 X65.453 Y64.213 E20.09589
G1 X65.717 Y63.812 E20.12104
G1 X66.3 Y62.968 E20.17477
G1 X67.156 Y61.768 E20.25199
G1 X67.708 Y61.025 E20.30047
G1 X68.457 Y60.073 E20.36393
G1 X69.291 Y59.049 E20.43311
G0 F7200 X69.636 Y59.337
G1 F1200 X70.206 Y58.665 E20.47927
G1 X70.926 Y57.859 E20.53589
G1 X72.181 Y56.512 E20.63233
G1 X72.492 Y56.193 E20.65567
G1 X73.448 Y55.255 E20.72583
G1 X74.59 Y54.182 E20.80791
G1 X74.935 Y53.872 E20.83221
G1 X75.819 Y53.111 E20.89331
G1 X77.131 Y52.028 E20.98243
G1 X77.501 Y51.737 E21.00709
G1 X78.661 Y50.867 E21.08305
G1 X79.466 Y50.284 E21.13512
G1 X80.251 Y49.74 E21.18515
G1 X81.453 Y48.956 E21.26033
G1 X82.422 Y48.351 E21.32017
G1 X83.135 Y47.927 E21.36362
G1 X84.389 Y47.225 E21.43891
G1 X85.706 Y46.525 E21.51704
G1 X86.124 Y46.314 E21.54157
G1 X87.209 Y45.797 E21.60453
G1 X88.337 Y45.282 E21.66948
G1 X89.243 Y44.892 E21.72115
G1 X90.315 Y44.464 E21.78162
G1 X92.038 Y43.821 E21.87796
G1 X92.459 Y43.674 E21.90132
G1 X93.559 Y43.317 E21.9619
G1 X95.324 Y42.785 E22.05847
G1 X95.764 Y42.663 E22.08239
G1 X97.034 Y42.342 E22.15101
G1 X98.366 Y42.029 E22.22269
G1 X99.264 Y41.836 E22.2708
G1 X100.214 Y41.656 E22.32145
G1 X101.25 Y41.476 E22.37654
G1 X102.341 Y41.308 E22.43436
G1 X103.839 Y41.122 E22.51344
G1 X104.857 Y41.013 E22.56707
G1 X105.226 Y40.981 E22.58647
G1 X106.905 Y40.864 E22.67464
G1 X108.139 Y40.805 E22.73935
G1 X109.822 Y40.775 E22.82753
G1 X110.65 Y40.775 E22.87091
G1 X112.481 Y40.829 E22.96686
G1 X113.867 Y40.903 E23.03957
G1 X115.551 Y41.046 E23.12811
G1 X116.747 Y41.174 E23.19112
G1 X118.14 Y41.362 E23.26475
G1 X119.602 Y41.59 E23.34226
G1 X121.026 Y41.858 E23.41817
G1 X122.408 Y42.146 E23.49212
G1 X122.912 Y42.265 E23.51925
G1 X124.799 Y42.758 E23.62141
G1 X125.201 Y42.871 E23.64329
G1 X126.651 Y43.311 E23.72267
G1 X127.046 Y43.439 E23.74442
G1 X128.613 Y43.982 E23.83129
G1 X129.003 Y44.126 E23.85307
G1 X130.408 Y44.675 E23.93209
G1 X130.789 Y44.833 E23.9537
G1 X132.211 Y45.453 E24.03496
G1 X132.585 Y45.624 E24.0565
G1 X133.996 Y46.305 E24.13858
G1 X134.363 Y46.491 E24.16013
G1 X135.715 Y47.209 E24.24032
G1 X136.081 Y47.413 E24.26227
G1 X137.458 Y48.215 E24.34575
G1 X137.803 Y48.424 E24.36688
G1 X139.058 Y49.22 E24.44473
G1 X139.4 Y49.447 E24.46623
G1 X140.708 Y50.349 E24.54947
G1 X141.036 Y50.584 E24.5706
G1 X142.249 Y51.49 E24.64991
G1 X142.559 Y51.73 E24.67045
G1 X143.784 Y52.717 E24.75286
G1 X144.108 Y52.99 E24.77505
G1 X145.293 Y54.025 E24.85747
G1 X145.574 Y54.279 E24.87732
G1 X146.687 Y55.323 E24.95726
G1 X146.977 Y55.606 E24.97848
G1 X148.06 Y56.702 E25.0592
G1 X148.326 Y56.981 E25.07939
G1 X149.418 Y58.169 E25.16392
G1 X149.682 Y58.467 E25.18478
G1 X150.689 Y59.648 E25.26608
G1 X150.936 Y59.949 E25.28648
G1 X151.912 Y61.182 E25.36885
G1 X152.138 Y61.478 E25.38836
G1 X153.314 Y63.085 E25.49268
G1 X154.196 Y64.377 E25.57463
G1 X154.404 Y64.694 E25.59449
G1 X155.279 Y66.079 E25.68031
G1 X156.289 Y67.795 E25.78461
G1 X156.469 Y68.115 E25.80385
G1 X157.223 Y69.513 E25.88705
G1 X157.396 Y69.848 E25.9068
G1 X158.313 Y71.716 E26.01581
G1 X158.973 Y73.173 E26.0996
G1 X159.114 Y73.5 E26.11826
G1 X159.879 Y75.364 E26.22381
G1 X160.472 Y76.942 E26.31211
G1 X160.594 Y77.286 E26.33123
G1 X161.244 Y79.228 E26.43851
G1 X161.729 Y80.833 E26.52634
G1 X162.288 Y82.909 E26.63897
G1 X162.798 Y85.095 E26.75656
G1 X163.14 Y86.756 E26.84539
G1 X163.249 Y87.332 E26.8761
G1 X163.574 Y89.195 E26.97517
G1 X163.837 Y90.964 E27.06885
G1 X164.028 Y92.543 E27.15217
G1 X164.234 Y94.88 E27.27507
G1 X164.314 Y96.241 E27.34649
G1 X164.389 Y98.22 E27.45023
G1 X164.425 Y100.149 E27.5513
G1 X164.432 Y101.456 E27.61977
G1 X164.42 Y103.34 E27.71846
G1 X164.386 Y104.895 E27.79994
G1 X164.356 Y105.738 E27.84413
G1 X164.29 Y107.162 E27.91881
G1 X164.243 Y107.959 E27.96063
G1 X164.144 Y109.372 E28.03483
G1 X164.09 Y110.024 E28.0691
G1 X163.873 Y112.218 E28.18459
G1 X163.69 Y113.728 E28.26427
G1 X163.6 Y114.402 E28.29989
G1 X163.252 Y116.689 E28.42108
G1 X162.981 Y118.231 E28.50309
G1 X162.879 Y118.771 E28.53188
G1 X162.591 Y120.197 E28.60809
G1 X162.123 Y122.286 E28.72023
G1 X161.513 Y124.7 E28.85067
G1 X160.972 Y126.628 E28.95556
G1 X160.701 Y127.538 E29.0053
G1 X160.335 Y128.713 E29.06977
G1 X159.992 Y129.768 E29.12789
G1 X159.607 Y130.905 E29.19077
G1 X159.312 Y131.747 E29.23751
G1 X158.848 Y133.022 E29.30858
G1 X158.461 Y134.05 E29.36612
G1 X158.021 Y135.181 E29.4297
G1 X157.559 Y136.33 E29.49457
G1 X156.964 Y137.766 E29.57599
G1 X156.362 Y139.16 E29.65554
G1 X155.585 Y140.868 E29.75383
G1 X155.003 Y142.071 E29.82384
G1 X154.259 Y143.521 E29.90921
G1 X153.244 Y145.369 E30.01966
G1 X152.408 Y146.804 E30.10666
G1 X151.417 Y148.434 E30.20659
G1 X150.702 Y149.567 E30.27677
G1 X149.988 Y150.666 E30.34542
G1 X148.707 Y152.555 E30.46499
G1 X148.154 Y153.337 E30.51516
G1 X147.277 Y154.533 E30.59285
G1 X146.375 Y155.701 E30.67016
G1 X145.575 Y156.707 E30.73749
G1 X144.315 Y158.203 E30.83995
G1 X143.498 Y159.135 E30.90487
G1 X142.46 Y160.258 E30.98498
G1 X141.478 Y161.282 E31.0593
G1 X140.398 Y162.343 E31.13861
G1 X139.384 Y163.303 E31.21176
G1 X138.138 Y164.411 E31.29911
G1 X137.278 Y165.145 E31.35834
G1 X135.943 Y166.217 E31.44803
G1 X135.054 Y166.897 E31.50666
G1 X133.857 Y167.759 E31.58393
G1 X132.826 Y168.468 E31.64947
G1 X132.284 Y168.82 E31.68333
G1 X131.265 Y169.462 E31.74642
G1 X130.79 Y169.751 E31.77555
G1 X129.648 Y170.404 E31.84446
G1 X128.903 Y170.813 E31.88898
G1 X128.378 Y171.091 E31.9201
G1 X126.387 Y172.081 E32.03658
G1 X125.578 Y172.474 E32.0837
G1 X123.333 Y173.643 E32.21629
G1 X121.128 Y174.87 E32.34848
G1 X118.986 Y176.144 E32.47903
G1 X118.341 Y176.554 E32.51907
G1 X117.262 Y177.221 E32.58552
G1 X116.456 Y177.673 E32.63393
G1 X115.606 Y178.055 E32.68274
G1 X115.092 Y178.26 E32.71173
G1 X114.505 Y178.478 E32.74453
G1 X113.623 Y178.754 E32.79295
G1 X112.469 Y178.993 E32.85468
G1 X111.97 Y179.068 E32.88111
G1 X111.351 Y179.147 E32.9138
G1 X110.43 Y179.217 E32.96219
G1 X109.206 Y179.185 E33.02633
G1 X108.676 Y179.141 E33.05419
G1 X108.085 Y179.079 E33.08532
G1 X107.172 Y178.936 E33.13373
G1 X105.974 Y178.62 E33.19863
G1 X105.206 Y178.365 E33.24102
G1 X104.908 Y178.258 E33.25761
G1 X104.052 Y177.908 E33.30605
G1 X102.976 Y177.337 E33.36987
G1 X101.915 Y176.693 E33.43488
G1 X100.923 Y176.069 E33.49627
